Flat-Remix-Dark/apps/scalable/tilix.svg

<svg xmlns="http://www.w3.org/2000/svg" xmlns:xlink="http://www.w3.org/1999/xlink" width="384pt" height="384pt" version="1.1" viewBox="0 0 384 384">
 <defs>
  <symbol id="glyph0-1" overflow="visible">
   <path d="M 15.015625 -70.265625 L 15.015625 -51.171875 L 2.078125 -51.171875 L 2.078125 -43.765625 L 15.015625 -43.765625 L 15.015625 -26.5 L 2.171875 -26.5 L 2.171875 -19.09375 L 15.015625 -19.09375 L 15.015625 0 L 21.515625 0 L 21.515625 -19.09375 L 36.109375 -19.09375 L 36.109375 0 L 42.609375 0 L 42.609375 -19.09375 L 55.53125 -19.09375 L 55.53125 -26.5 L 42.609375 -26.5 L 42.609375 -43.765625 L 55.53125 -43.765625 L 55.53125 -51.171875 L 42.609375 -51.171875 L 42.609375 -70.265625 L 36.109375 -70.265625 L 36.109375 -51.171875 L 21.515625 -51.171875 L 21.515625 -70.265625 Z M 21.515625 -26.5 L 21.515625 -43.765625 L 36.109375 -43.765625 L 36.109375 -26.5 Z M 21.515625 -26.5"/>
  </symbol>
  <filter id="alpha" width="100%" height="100%" x="0%" y="0%" filterUnits="objectBoundingBox">
   <feColorMatrix in="SourceGraphic" type="matrix" values="0 0 0 0 1 0 0 0 0 1 0 0 0 0 1 0 0 0 1 0"/>
  </filter>
  <mask id="mask0">
   <g filter="url(#alpha)">
    <rect width="384" height="384" x="0" y="0" style="fill:rgb(0%,0%,0%);fill-opacity:0.2"/>
   </g>
  </mask>
  <clipPath id="clip1">
   <rect width="384" height="384" x="0" y="0"/>
  </clipPath>
  <g id="surface5" clip-path="url(#clip1)">
   <path style="fill-rule:evenodd;fill:rgb(100.000%,100.000%,100.000%)" d="M 195.421875 66.472656 L 345.953125 66.472656 C 350.167969 66.472656 353.582031 69.886719 353.582031 74.101562 L 353.582031 309.902344 C 353.582031 314.117188 350.167969 317.53125 345.953125 317.53125 L 195.421875 317.53125 C 191.207031 317.53125 187.792969 314.117188 187.792969 309.902344 L 187.792969 74.101562 C 187.792969 69.886719 191.207031 66.472656 195.421875 66.472656 Z M 195.421875 66.472656"/>
  </g>
 </defs>
 <path style="opacity:0.3;fill-rule:evenodd" d="M 37.99024,59.60254 C 25.79528,59.60254 15.75,69.64357 15.75,81.84082 v 235.31641 c 0,12.19725 10.04299,22.24023 22.24024,22.24023 h 308.02343 c 12.19725,0 22.23633,-10.04527 22.23633,-22.24023 V 81.84082 c 0,-12.19495 -10.04137,-22.23828 -22.23633,-22.23828 z"/>
 <g>
  <path style="fill-rule:evenodd;fill:rgb(9.803%,9.803%,9.803%);stroke-width:19.392349;stroke-linejoin:round;stroke:rgb(100.000%,100.000%,100.000%)" d="M 50.65625 -368.828125 L 461.354167 -368.828125 C 472.375 -368.828125 481.307292 -359.895833 481.307292 -348.875 L 481.307292 -35.119792 C 481.307292 -24.098958 472.375 -15.161458 461.354167 -15.161458 L 50.65625 -15.161458 C 39.635417 -15.161458 30.697917 -24.098958 30.697917 -35.119792 L 30.697917 -348.875 C 30.697917 -359.895833 39.635417 -368.828125 50.65625 -368.828125 Z M 50.65625 -368.828125" transform="matrix(0.75,0,0,0.75,0,336)"/>
  <path style="fill:rgb(100.000%,100.000%,100.000%)" d="M 77.308594 102.253906 L 77.308594 111.296875 C 72.886719 111.796875 69.429688 113.109375 66.953125 115.242188 C 64.203125 117.617188 62.824219 120.863281 62.824219 124.980469 C 62.824219 128.765625 64.085938 131.746094 66.613281 133.917969 C 68.925781 135.886719 72.5 137.332031 77.308594 138.261719 L 77.308594 155.742188 C 75.03125 155.609375 72.800781 155.222656 70.628906 154.558594 C 68 153.726562 65.398438 152.5 62.824219 150.886719 L 62.824219 157.703125 C 65.5 158.839844 68.164062 159.699219 70.816406 160.277344 C 72.980469 160.730469 75.144531 161.007812 77.308594 161.125 L 77.308594 172.589844 L 84.097656 172.589844 L 84.097656 160.96875 C 88.765625 160.445312 92.402344 159.085938 94.980469 156.871094 C 97.859375 154.394531 99.300781 151.023438 99.300781 146.757812 C 99.300781 142.816406 97.949219 139.710938 95.246094 137.4375 C 92.789062 135.371094 89.0625 133.886719 84.097656 132.96875 L 84.097656 116.636719 C 85.894531 116.796875 87.65625 117.101562 89.375 117.554688 C 91.597656 118.136719 93.757812 118.957031 95.851562 120.015625 L 95.851562 113.386719 C 93.757812 112.707031 91.609375 112.175781 89.414062 111.796875 C 87.6875 111.480469 85.914062 111.257812 84.097656 111.128906 L 84.097656 102.253906 Z M 77.308594 116.722656 L 77.308594 131.726562 C 74.917969 131.191406 73.113281 130.417969 71.914062 129.410156 C 70.5 128.199219 69.792969 126.507812 69.792969 124.335938 C 69.792969 122.113281 70.5625 120.332031 72.105469 118.992188 C 73.367188 117.894531 75.109375 117.144531 77.308594 116.722656 Z M 84.097656 139.609375 C 86.691406 140.214844 88.644531 141.066406 89.945312 142.171875 C 91.511719 143.488281 92.292969 145.253906 92.292969 147.476562 C 92.292969 149.75 91.472656 151.578125 89.832031 152.96875 C 88.476562 154.128906 86.5625 154.953125 84.097656 155.441406 Z M 84.097656 139.609375"/>
  <path style="fill:rgb(100.000%,100.000%,100.000%)" d="M 145.316406 174.066406 L 145.316406 179.480469 L 105.019531 179.480469 L 105.019531 174.066406 Z M 145.316406 174.066406"/>
  <use mask="url(#mask0)" xlink:href="#surface5"/>
  <path style="fill:rgb(100.000%,100.000%,100.000%)" d="M 305.816406 174.066406 L 305.816406 179.480469 L 265.519531 179.480469 L 265.519531 174.066406 Z M 305.816406 174.066406"/>
  <g style="fill:rgb(100.000%,100.000%,100.000%)">
   <use x="212.75" y="172.56" xlink:href="#glyph0-1"/>
  </g>
 </g>
</svg>

<svg width="512" height="512" version="1.1" viewBox="0 0 384 384" xmlns="http://www.w3.org/2000/svg" xmlns:xlink="http://www.w3.org/1999/xlink"><g fill-rule="evenodd"><path d="m37.971 52.081c-12.196 0-22.243 9.9094-22.243 21.949v232.28c0 12.039 10.044 21.953 22.243 21.953h308.07c12.199 0 22.239-9.9156 22.239-21.953v-232.28c0-12.037-10.043-21.949-22.239-21.949zm0 14.357h308.07c4.3371 0 7.6924 3.3117 7.6924 7.5921v232.28c0 4.2805-3.3577 7.5979-7.6924 7.5979h-308.07c-4.3348 0-7.6983-3.3199-7.6983-7.5979v-232.28c0-4.2783 3.3616-7.5921 7.6983-7.5921z" color="#000000" color-rendering="auto" dominant-baseline="auto" fill="#fff" image-rendering="auto" opacity=".2" shape-rendering="auto" solid-color="#000000" stroke="#000" stroke-linejoin="round" stroke-width="7.4519" style="font-feature-settings:normal;font-variant-alternates:normal;font-variant-caps:normal;font-variant-ligatures:normal;font-variant-numeric:normal;font-variant-position:normal;isolation:auto;mix-blend-mode:normal;shape-padding:0;text-decoration-color:#000000;text-decoration-line:none;text-decoration-style:solid;text-indent:0;text-orientation:mixed;text-transform:none;white-space:normal"/><path d="m37.99 59.603c-12.195 0-22.24 10.041-22.24 22.238v235.32c0 12.197 10.043 22.24 22.24 22.24h308.02c12.197 0 22.236-10.045 22.236-22.24v-235.32c0-12.195-10.041-22.238-22.236-22.238z" opacity=".3"/><path transform="matrix(.75 0 0 .75 0 336)" d="m50.656-368.83h410.7c11.021 0 19.953 8.9323 19.953 19.953v313.76c0 11.021-8.9323 19.958-19.953 19.958h-410.7c-11.021 0-19.958-8.9375-19.958-19.958v-313.76c0-11.021 8.9375-19.953 19.958-19.953z" fill="#181818" stroke="#fff" stroke-linejoin="round" stroke-width="19.392"/></g><g fill="#fff"><path d="m77.309 102.25v9.043c-4.4219 0.5-7.8789 1.8125-10.355 3.9453-2.75 2.375-4.1289 5.6211-4.1289 9.7383 0 3.7852 1.2617 6.7656 3.7891 8.9375 2.3125 1.9688 5.8867 3.4141 10.695 4.3438v17.48c-2.2773-0.13281-4.5078-0.51953-6.6797-1.1836-2.6289-0.83203-5.2305-2.0586-7.8047-3.6719v6.8164c2.6758 1.1367 5.3398 1.9961 7.9922 2.5742 2.1641 0.45312 4.3281 0.73047 6.4922 0.84766v11.465h6.7891v-11.621c4.668-0.52344 8.3047-1.8828 10.883-4.0977 2.8789-2.4766 4.3203-5.8477 4.3203-10.113 0-3.9414-1.3516-7.0469-4.0547-9.3203-2.457-2.0664-6.1836-3.5508-11.148-4.4688v-16.332c1.7969 0.16016 3.5586 0.46484 5.2773 0.91797 2.2227 0.58203 4.3828 1.4023 6.4766 2.4609v-6.6289c-2.0938-0.67969-4.2422-1.2109-6.4375-1.5898-1.7266-0.31641-3.5-0.53906-5.3164-0.66797v-8.875zm0 14.469v15.004c-2.3906-0.53516-4.1953-1.3086-5.3945-2.3164-1.4141-1.2109-2.1211-2.9023-2.1211-5.0742 0-2.2227 0.76953-4.0039 2.3125-5.3438 1.2617-1.0977 3.0039-1.8477 5.2031-2.2695zm6.7891 22.887c2.5938 0.60547 4.5469 1.457 5.8477 2.5625 1.5664 1.3164 2.3477 3.082 2.3477 5.3047 0 2.2734-0.82031 4.1016-2.4609 5.4922-1.3555 1.1602-3.2695 1.9844-5.7344 2.4727z"/><path d="m145.32 174.07v5.4141h-40.297v-5.4141z"/><path d="m305.82 174.07v5.4141h-40.297v-5.4141z"/><use x="212.75" y="172.56" xlink:href="#a"/></g><path d="m195.49 66.647h150.52c4.3363 0 7.6934 3.3551 7.6934 7.6914v235.32c0 4.3363-3.3594 7.6973-7.6934 7.6973h-150.52c-4.334 0-7.6973-3.3633-7.6973-7.6973v-235.32c0-4.334 3.361-7.6914 7.6973-7.6914z" color="#000000" color-rendering="auto" dominant-baseline="auto" fill="#fff" fill-rule="evenodd" image-rendering="auto" opacity=".3" shape-rendering="auto" solid-color="#000000" style="font-feature-settings:normal;font-variant-alternates:normal;font-variant-caps:normal;font-variant-ligatures:normal;font-variant-numeric:normal;font-variant-position:normal;isolation:auto;mix-blend-mode:normal;shape-padding:0;text-decoration-color:#000000;text-decoration-line:none;text-decoration-style:solid;text-indent:0;text-orientation:mixed;text-transform:none;white-space:normal"/><g transform="translate(211.53 172.55)"><path d="m10.516-70.266v19.094h-12.938v7.4062h12.938v17.266h-12.844v7.4062h12.844v19.094h6.5v-19.094h14.594v19.094h6.5v-19.094h12.922v-7.4062h-12.922v-17.266h12.922v-7.4062h-12.922v-19.094h-6.5v19.094h-14.594v-19.094zm6.5 43.766v-17.266h14.594v17.266z" fill="#fff"/></g></svg>
